!!!OTL@@DE: Divertimento in B, 1. Satz, KV 137/01
!!!OTL@@EN: Divertimento in B flat, 1st mvt., K. 137/01
!!!OTL: dmeref_137-001_2351.xml
!!!OTL1@@EN: A digital edition
**kern	**dynam	**kern	**dynam	**kern	**dynam	**kern	**dynam
*part4	*part4	*part3	*part3	*part2	*part2	*part1	*part1
*staff4	*staff4	*staff3	*staff3	*staff2	*staff2	*staff1	*staff1
*I"	*	*I"Viola	*	*I"Violino II	*	*I"Violino I	*
*	*	*I'Vla	*	*I'Vln	*	*I'Vln	*
*clefF4	*	*clefC3	*	*clefG2	*	*clefG2	*
*k[b-e-]	*	*k[b-e-]	*	*k[b-e-]	*	*k[b-e-]	*
*B-:	*	*B-:	*	*B-:	*	*B-:	*
!!LO:TX:omd:t=Andante
*M3/4	*	*M3/4	*	*M3/4	*	*M3/4	*
*MM70	*	*MM70	*	*MM70	*	*MM70	*
=1	=1	=1	=1	=1	=1	=1	=1
2.r	.	2.r	.	2.r	.	4ff	p
.	.	.	.	.	.	(16qee-/	.
.	.	.	.	.	.	4dd)	.
.	.	.	.	.	.	4cc	.
=2	=2	=2	=2	=2	=2	=2	=2
4F	f	4d	f	4a-X	f	(8.bnL	f
.	.	.	.	.	.	32cc	.
.	.	.	.	.	.	32ddJJJ)	.
4E-	.	4e-	.	4g	.	4cc	.
4r	.	4r	.	4r	.	4r	.
=3	=3	=3	=3	=3	=3	=3	=3
2.r	.	2.r	.	2.r	.	4gg	p
.	.	.	.	.	.	(16qff/	.
.	.	.	.	.	.	4ee-)	.
.	.	.	.	.	.	4dd	.
=4	=4	=4	=4	=4	=4	=4	=4
4G	f	4en	f	4b-	f	(8.cc#XL	f
.	.	.	.	.	.	32dd	.
.	.	.	.	.	.	32eenJJJ)	.
4F	.	4f	.	4an	.	4dd	.
4r	.	4r	.	4r	.	8r	.
.	.	.	.	.	.	(16ddLL	p
.	.	.	.	.	.	16ee-XJJ)	.
=5	=5	=5	=5	=5	=5	=5	=5
8GL	p	4r	.	8r	.	(2ee-	.
8G	.	.	.	(16b-LL	p	.	.
.	.	.	.	16ccJJ)	.	.	.
8G	.	4e-X	p	8b-L	.	.	.
8G	.	.	.	8b-	.	.	.
8F	.	4f	.	8b-	.	4dd)	.
8FJ	.	.	.	8b-J	.	.	.
=6	=6	=6	=6	=6	=6	=6	=6
8EnL	.	4g	.	8b-L	.	4cc	.
8E	.	.	.	8b-	.	.	.
8E-X	.	4c	.	8a	.	4gg	.
8E-	.	.	.	8aJ	.	.	.
8D	.	4d	.	8b-L	.	(8ffL	.
8DJ	.	.	.	(16dd	.	8bb-J)	.
.	.	.	.	16ffJJ)	.	.	.
!!LO:LB:g=z
=7	=7	=7	=7	=7	=7	=7	=7
.	.	.	.	(16qqff/	.	(16qqaa/	.
8E-L	.	8e-L	.	8ee-L)	.	8ggL)	.
8E-	.	8gJ	.	16dd	.	16ff	.
.	.	.	.	16ccJJ	.	16ee-JJ	.
8F	.	4f	.	4b-	.	4dd	.
8F	.	.	.	.	.	.	.
8FF	.	4e-	.	4at	.	4ccT	.
8FFJ	.	.	.	.	.	.	.
=8	=8	=8	=8	=8	=8	=8	=8
4BB-	f	8dL	f	8b-L	f	8b-L	f
.	.	8b-J	.	8ddJ	.	8ffJ	.
4BB-	p	4r	.	16r	.	16r	.
.	.	.	.	16d'LL	p	16f'LL	p
.	.	.	.	16d'	.	16f'	.
.	.	.	.	16d'JJ	.	16f'JJ	.
4r	.	4r	.	(16e-LL	.	(16gLL	.
.	.	.	.	16d	.	16f	.
.	.	.	.	16c#X	.	16en	.
.	.	.	.	16dJJ)	.	16fJJ)	.
=9	=9	=9	=9	=9	=9	=9	=9
4AA	f	8cL	f	8e-XL	f	8fL	f
.	.	8ccJ	.	8ee-J	.	8ffJ	.
4AA	p	4r	.	16r	.	16r	.
.	.	.	.	16cn'LL	p	16e-X'LL	p
.	.	.	.	16c'	.	16e-'	.
.	.	.	.	16c'JJ	.	16e-'JJ	.
4r	.	4r	.	(16BnLL	.	(16dLL	.
.	.	.	.	16c	.	16e-	.
.	.	.	.	16d	.	16f	.
.	.	.	.	16cJJ)	.	16e-JJ)	.
=10	=10	=10	=10	=10	=10	=10	=10
4BB-	f	8FL	f	8B-XL	f	8dL	f
.	.	8fJ	.	8bb-J	.	8dddJ	.
4G	p	2g	p	8r	.	8r	.
.	.	.	.	8dd	p	8bb-	p
4En	.	.	.	8r	.	8r	.
.	.	.	.	8b-	.	8dd	.
=11	=11	=11	=11	=11	=11	=11	=11
4F	.	4f	.	(8.ddL	.	(8.ffL	.
.	.	.	.	16b-Jk)	.	16ddJk)	.
8r	.	8r	.	4a	.	4cc	.
(8AL	.	(8cL	.	.	.	.	.
8B-	.	8d	.	4r	.	4r	.
8GJ)	.	8B-J)	.	.	.	.	.
!!LO:LB:g=z
=12	=12	=12	=12	=12	=12	=12	=12
8FL	f	(16ALL	f	2.cc	f	2.ccc	f
.	.	16c	.	.	.	.	.
8F	.	16A	.	.	.	.	.
.	.	16cJJ)	.	.	.	.	.
!	!	!LO:TX:b:t=simile	!	!	!	!	!
8F	.	16ALL	.	.	.	.	.
.	.	16c	.	.	.	.	.
8F	.	16A	.	.	.	.	.
.	.	16cJJ	.	.	.	.	.
8F	.	16ALL	.	.	.	.	.
.	.	16c	.	.	.	.	.
8FJ	.	16A	.	.	.	.	.
.	.	16cJJ	.	.	.	.	.
=13	=13	=13	=13	=13	=13	=13	=13
8GL	.	16B-LL	.	[4en	.	[4een	.
.	.	16c	.	.	.	.	.
8G	.	16B-	.	.	.	.	.
.	.	16cJJ	.	.	.	.	.
8C	.	16GLL	.	(8.eL]	.	(8.eeL]	.
.	.	16c	.	.	.	.	.
8C	.	16B-	.	.	.	.	.
.	.	16cJJ	.	32f	.	32ff	.
.	.	.	.	32gJJJ)	.	32ggJJJ)	.
8F	.	16ALL	.	8f	.	8ff	.
.	.	16c	.	.	.	.	.
8FJ	.	16f	.	8r	.	8r	.
.	.	16cJJ	.	.	.	.	.
=14	=14	=14	=14	=14	=14	=14	=14
.	.	.	.	(32qa/LLL	.	(32qaa/LLL	.
.	.	.	.	32qg/	.	32qgg/	.
.	.	.	.	32qf#X/JJJ	.	32qff#X/JJJ	.
8CL	.	16enLL	.	8g)	.	8gg)	.
.	.	16c	.	.	.	.	.
8C	.	16e	.	8r	.	8r	.
.	.	16cJJ	.	.	.	.	.
.	.	.	.	(32qb-/LLL	.	(32qbb-/LLL	.
.	.	.	.	32qa/	.	32qaa/	.
.	.	.	.	32qg/JJJ	.	32qgg/JJJ	.
8C	.	16fLL	.	8a)	.	8aa)	.
.	.	16c	.	.	.	.	.
8C	.	16f	.	8r	.	8r	.
.	.	16cJJ	.	.	.	.	.
.	.	.	.	(32qcc/LLL	.	(32qccc/LLL	.
.	.	.	.	32qb-/	.	32qbb-/	.
.	.	.	.	32qa/JJJ	.	32qaa/JJJ	.
8C	.	16gLL	.	8b-)	.	8bb-)	.
.	.	16c	.	.	.	.	.
8CJ	.	16e	.	8r	.	8r	.
.	.	16gJJ	.	.	.	.	.
=15	=15	=15	=15	=15	=15	=15	=15
.	.	(16qqg/	.	(16qqb-/	.	(16qqbb-/	.
4C	.	8fL)	.	8aL)	.	8aaL)	.
.	.	16en	.	16g	.	16gg	.
.	.	16fJJ	.	16aJJ	.	16aaJJ	.
4CC	.	4e	.	4g	.	4gg	.
4r	.	4r	.	4r	.	4r	.
!!LO:PB:g=z
=16	=16	=16	=16	=16	=16	=16	=16
8FFL	p	2.c	p	(16ALL	p	2.cc	p
.	.	.	.	16c	.	.	.
8FF	.	.	.	16A	.	.	.
.	.	.	.	16cJJ)	.	.	.
!	!	!	!	!LO:TX:b:t=simile	!	!	!
8FF	.	.	.	16ALL	.	.	.
.	.	.	.	16c	.	.	.
8FF	.	.	.	16A	.	.	.
.	.	.	.	16cJJ	.	.	.
8FF	.	.	.	16ALL	.	.	.
.	.	.	.	16c	.	.	.
8FFJ	.	.	.	16A	.	.	.
.	.	.	.	16cJJ	.	.	.
=17	=17	=17	=17	=17	=17	=17	=17
8GGL	.	[4En	.	16B-LL	.	[4en	.
.	.	.	.	16c	.	.	.
8GG	.	.	.	16B-	.	.	.
.	.	.	.	16cJJ	.	.	.
8CC	.	(8.EL]	.	16GLL	.	(8.eL]	.
.	.	.	.	16B-	.	.	.
8CC	.	.	.	16c	.	.	.
.	.	32F	.	16B-JJ	.	32f	.
.	.	32GJJJ)	.	.	.	32gJJJ)	.
8FF	.	8FL	.	8AL	.	8fL	.
8FFJ	.	[8fJ	.	8aJ	.	(16ff	.
.	.	.	.	.	.	16ccJJ)	.
=18	=18	=18	=18	=18	=18	=18	=18
8BB-L	.	8fL]	.	(16b-LL	.	(16ddLL	.
.	.	.	.	16f)	.	16d)	.
8BB-	.	8d	.	(16g	.	(16b-	.
.	.	.	.	16B-JJ)	.	16gJJ)	.
8C	.	8c	.	4A	.	4f	.
8C	.	8c	.	.	.	.	.
8CC	.	8c	.	4G	.	4en	.
8CCJ	.	8cJ	.	.	.	.	.
=19	=19	=19	=19	=19	=19	=19	=19
4FF	.	8c	.	8A/L	.	8fL	.
.	.	8r	.	(32ff	f	(32aa	f
.	.	.	.	32ggJ	.	32bb-J	.
.	.	.	.	16aa/JJ)	.	16cccJJ)	.
4AA	.	2cc	p	16r	.	16r	.
.	.	.	.	16a'LL	p	16cc'LL	p
.	.	.	.	16g'	.	16b-'	.
.	.	.	.	16f'JJ	.	16a'JJ	.
4C	.	.	.	16en'LL	.	16g'LL	.
.	.	.	.	16d'	.	16f'	.
.	.	.	.	16e'	.	16g'	.
.	.	.	.	16c'JJ	.	16en'JJ	.
!!LO:LB:g=z
=20	=20	=20	=20	=20	=20	=20	=20
4DD	.	4r	.	8A/L	.	8fL	.
.	.	.	.	(32dd	f	(32ff	f
.	.	.	.	32eenJ	.	32ggJ	.
.	.	.	.	16ffJJ)	.	16aaJJ)	.
4FF	.	2a	.	16r	.	16r	.
.	.	.	.	16f'LL	p	16a'LL	p
.	.	.	.	16en'	.	16g'	.
.	.	.	.	16d'JJ	.	16f'JJ	.
4AA	.	.	.	16c'LL	.	16e-X'LL	.
.	.	.	.	16e-X'	.	16g'	.
.	.	.	.	16d'	.	16f'	.
.	.	.	.	16c'JJ	.	16e-'JJ	.
=21	=21	=21	=21	=21	=21	=21	=21
4BB-	.	4r	.	8B-L	.	8d/L	.
.	.	.	.	(32b-	f	(32dd/	f
.	.	.	.	32ccJ	.	32een/J	.
.	.	.	.	16ddJJ)	.	16ff/JJ)	.
4D	.	2f	.	16r	.	16r	.
.	.	.	.	16d'LL	p	16f'LL	p
.	.	.	.	16c'	.	16en'	.
.	.	.	.	16B-'JJ	.	16d'JJ	.
4F	.	.	.	16A'LL	.	16c'LL	.
.	.	.	.	16a'	.	16cc'	.
.	.	.	.	16a'	.	16cc'	.
.	.	.	.	16a'JJ	.	16cc'JJ	.
=22	=22	=22	=22	=22	=22	=22	=22
8BB-L	.	4d	.	(16aLL	.	(16ccLL	.
.	.	.	.	16g)	.	16b-)	.
8BB-	.	.	.	(16b-	.	(16dd	.
.	.	.	.	16gJJ)	.	16b-JJ)	.
8C	.	4c	.	4f	.	4a	.
8C	.	.	.	.	.	.	.
8C	.	4c	.	4ent	.	4gT	.
8CJ	.	.	.	.	.	.	.
=23	=23	=23	=23	=23	=23	=23	=23
4F	.	2c	.	8fL	.	16fLL	.
.	.	.	.	.	.	(16aa	.
.	.	.	.	(32ff	.	16ccc	.
.	.	.	.	32gg	.	.	.
.	.	.	.	32aa	.	16aaJJ)	.
.	.	.	.	32ffJJJ)	.	.	.
4c	.	.	.	8eenL	.	16ggLL	.
.	.	.	.	.	.	(16een	.
.	.	.	.	(32cc	.	16gg	.
.	.	.	.	32dd	.	.	.
.	.	.	.	32ee	.	16eeJJ)	.
.	.	.	.	32ccJJJ)	.	.	.
4c#X	.	[4a	.	8eeL	.	16ggLL	.
.	.	.	.	.	.	(16g	.
.	.	.	.	(32en	.	16b-	.
.	.	.	.	32f	.	.	.
.	.	.	.	32g	.	16gJJ)	.
.	.	.	.	32eJJJ)	.	.	.
!!LO:LB:g=z
=24	=24	=24	=24	=24	=24	=24	=24
4d	.	4a]	.	8dL	.	16fLL	.
.	.	.	.	.	.	(16ff	.
.	.	.	.	(32dd	.	16aa	.
.	.	.	.	32een	.	.	.
.	.	.	.	32ff	.	16ffJJ)	.
.	.	.	.	32ddJJJ)	.	.	.
4A	.	4f	.	8ccL	.	16ee-XLL	.
.	.	.	.	.	.	(16cc	.
.	.	.	.	(32a	.	16ee-	.
.	.	.	.	32b-	.	.	.
.	.	.	.	32cc	.	16ccJJ)	.
.	.	.	.	32b-JJJ)	.	.	.
4F	.	8cL	.	8aL	.	16ee-LL	.
.	.	.	.	.	.	(16e-X	.
.	.	8AJ	.	(32c	.	16g	.
.	.	.	.	32d	.	.	.
.	.	.	.	32e-X	.	16e-JJ)	.
.	.	.	.	32cJJJ)	.	.	.
=25	=25	=25	=25	=25	=25	=25	=25
4BB-	.	[2.F	.	8B-L	.	16d/LL	.
.	.	.	.	.	.	(16dd/	.
.	.	.	.	(32b-	.	16ff/	.
.	.	.	.	32cc	.	.	.
.	.	.	.	32dd	.	16dd/JJ)	.
.	.	.	.	32b-JJJ)	.	.	.
4F	.	.	.	8aL	.	16ccLL	.
.	.	.	.	.	.	(16a	.
.	.	.	.	(32f	.	16cc	.
.	.	.	.	32en	.	.	.
.	.	.	.	32f	.	16aJJ)	.
.	.	.	.	32gJJJ)	.	.	.
4FF	.	.	.	8aL	.	16ccLL	.
.	.	.	.	.	.	(16c	.
.	.	.	.	(32A	.	16e-X	.
.	.	.	.	32B-	.	.	.
.	.	.	.	32c	.	16cJJ)	.
.	.	.	.	32AJJJ)	.	.	.
=26	=26	=26	=26	=26	=26	=26	=26
.	.	.	.	.	.	(16qe-/	.
4BB-	.	8.FL]	.	8B-L	.	8dL)	.
.	.	.	.	(16g	.	(16dd	.
.	.	16dJk	.	16b-JJ)	.	16ggJJ)	.
4C	.	2c	.	(4a	.	(4ff	.
4CC	.	.	.	4g)	.	4een)	.
=27	=27	=27	=27	=27	=27	=27	=27
4r	.	4r	.	(8b-L	pp	4r	.
.	.	.	.	8gJ)	.	.	.
4CC#X	pp	4G	pp	4en	.	4B-	pp
4CC#	.	4G	.	4e	.	4B-	.
!!LO:LB:g=z
=28	=28	=28	=28	=28	=28	=28	=28
(2CC#X	.	(2G	.	(2en	.	(2B-	.
8DD)	.	8F)	.	8f)	.	8A)	.
8r	.	8r	.	8r	.	8r	.
=29	=29	=29	=29	=29	=29	=29	=29
4BB-	f	4B-	f	4f	f	4d	f
4GG	.	4g 4G	.	4gg 4b- 4d	.	4bb- 4dd	.
4r	.	4r	.	4r	.	8r	.
*	*	*	*	*	*	*Xbrackettup	*
.	.	.	.	.	.	(24ddLL	p
.	.	.	.	.	.	24b-	.
.	.	.	.	.	.	24gJJ)	.
=30	=30	=30	=30	=30	=30	=30	=30
(4C	p	(8.GL	p	(4B-	p	(8.enL	.
.	.	16EnJk)	.	.	.	16gJk)	.
4FF)	.	4F	.	4A)	.	4f	.
4r	.	4r	.	4r	.	4r	.
=31:|!|:	=31:|!|:	=31:|!|:	=31:|!|:	=31:|!|:	=31:|!|:	=31:|!|:	=31:|!|:
(4EEn	p	(8.B-L	p	4c	p	(8.gL	p
.	.	16GJk)	.	.	.	16b-Jk)	.
4EE-X)	.	4F	.	4c	.	4a	.
4r	.	4r	.	4r	.	4r	.
=32	=32	=32	=32	=32	=32	=32	=32
(4DD	.	(8.fL	.	4r	.	(8.b-L	.
.	.	32e-X	.	.	.	32cc	.
.	.	(32dJJJ	.	.	.	32ddJJJ)	.
4AA)	.	4c)	.	4f	.	4ee-	.
4r	.	4r	.	4r	.	4r	.
=33	=33	=33	=33	=33	=33	=33	=33
(8.BB-L	.	4r	.	(8.fL	.	(8.ddL	.
32C	.	.	.	32e-	.	32ee-	.
(32DJJJ	.	.	.	32dJJJ)	.	32ffJJJ)	.
4E-)	.	(8.cL	.	4c	.	4gg	.
.	.	32e-	.	.	.	.	.
.	.	32fJJJ)	.	.	.	.	.
4En	.	4g	.	4c	.	4b-	.
=34	=34	=34	=34	=34	=34	=34	=34
4F	.	4f	.	4c	.	(8.b-TL	.
.	.	.	.	.	.	32a	.
.	.	.	.	.	.	32b-JJJ)	.
4FF	.	4F	.	4c	.	4a	.
4r	.	4r	.	4r	.	4r	.
!!LO:PB:g=z
=35	=35	=35	=35	=35	=35	=35	=35
2.r	.	2.r	.	2.r	.	4ff	.
.	.	.	.	.	.	(16qee-/	.
.	.	.	.	.	.	4dd)	.
.	.	.	.	.	.	4cc	.
=36	=36	=36	=36	=36	=36	=36	=36
4F	f	4d	f	4a-X	f	(8.bnL	f
.	.	.	.	.	.	32cc	.
.	.	.	.	.	.	32ddJJJ)	.
4E-X	.	4e-	.	4g	.	4cc	.
4r	.	4r	.	4r	.	4r	.
=37	=37	=37	=37	=37	=37	=37	=37
4F	p	4A-X	p	4c	p	4d	p
4G	.	2G	.	(4.Bn	.	(4.d	.
4GG	.	.	.	.	.	.	.
.	.	.	.	16cLL	.	16e-LL	.
.	.	.	.	16dJJ)	.	16fJJ)	.
=38	=38	=38	=38	=38	=38	=38	=38
4C	.	4G	.	8.cL	.	8.e-L	.
.	.	.	.	16BnJk	.	16dJk	.
8r	.	4r	.	4c	.	4c	.
8cL	.	.	.	.	.	.	.
8G	.	4r	.	4r	.	4r	.
8E-J	.	.	.	.	.	.	.
=39	=39	=39	=39	=39	=39	=39	=39
4C	.	2.r	.	2.r	.	4gg	.
.	.	.	.	.	.	(16qff/	.
4r	.	.	.	.	.	4ee-)	.
4r	.	.	.	.	.	4dd	.
=40	=40	=40	=40	=40	=40	=40	=40
4G	f	4en	f	4b-	f	(8.cc#XL	f
.	.	.	.	.	.	32dd	.
.	.	.	.	.	.	32eenJJJ)	.
4F	.	4f	.	4an	.	4dd	.
4r	.	4r	.	4r	.	4r	.
=41	=41	=41	=41	=41	=41	=41	=41
4G	p	4B-	p	4d	p	4en	p
4A	.	2An	.	(4.c#X	.	(4.e	.
4AA	.	.	.	.	.	.	.
.	.	.	.	16dLL	.	16fLL	.
.	.	.	.	16enJJ)	.	16gJJ)	.
!!LO:LB:g=z
=42	=42	=42	=42	=42	=42	=42	=42
4D	f	8AL	f	8dL	f	8fL	f
.	.	8aJ	.	8ddJ	.	8ffJ	.
(4D	p	4r	.	16r	.	16r	.
.	.	.	.	16d'LL	p	16f'LL	p
.	.	.	.	16d'	.	16f'	.
.	.	.	.	16d'JJ	.	16f'JJ	.
4C)	.	4r	.	(16enLL	.	(16gLL	.
.	.	.	.	16d	.	16f	.
.	.	.	.	16c#X	.	16en	.
.	.	.	.	16dJJ)	.	16fJJ)	.
=43	=43	=43	=43	=43	=43	=43	=43
4BBn	f	8BnL	f	8d\L	f	8fL	f
.	.	8dJ	.	8ff\J	.	8aa-XJ	.
4BB	p	4r	.	16r	.	16r	.
.	.	.	.	16f'LL	p	16a-X'LL	p
.	.	.	.	16f'	.	16a-'	.
.	.	.	.	16f'JJ	.	16a-'JJ	.
4BB	.	4r	.	(16fLL	.	(16a-LL	.
.	.	.	.	16e-X)	.	16g)	.
.	.	.	.	(16e-	.	(16g	.
.	.	.	.	16dJJ)	.	16fJJ)	.
=44	=44	=44	=44	=44	=44	=44	=44
4C	f	8GL	f	8cL	f	8e-L	f
.	.	8gJ	.	8ccJ	.	8ee-J	.
(4C	p	4r	.	16r	.	16r	.
.	.	.	.	16c'LL	p	16e-'LL	p
.	.	.	.	16c'	.	16e-'	.
.	.	.	.	16c'JJ	.	16e-'JJ	.
4BB-X)	.	4r	.	(16dLL	.	(16fLL	.
.	.	.	.	16c	.	16e-	.
.	.	.	.	16Bn	.	16d	.
.	.	.	.	16cJJ)	.	16e-JJ)	.
=45	=45	=45	=45	=45	=45	=45	=45
4AA	f	8FL	f	8cL	f	8e-L	f
.	.	8cJ	.	8ee-J	.	8ggJ	.
4AA	p	4r	.	16r	.	16r	.
.	.	.	.	16e-'LL	p	16g'LL	p
.	.	.	.	16e-'	.	16g'	.
.	.	.	.	16e-'JJ	.	16g'JJ	.
4AA	.	4r	.	(16dLL	.	(16fLL	.
.	.	.	.	16c	.	16e-	.
.	.	.	.	16Bn	.	16d	.
.	.	.	.	16cJJ)	.	16e-JJ)	.
!!LO:LB:g=z
=46	=46	=46	=46	=46	=46	=46	=46
4AA-X	f	8FL	f	8B-XL	f	8dL	f
.	.	8b-J	.	8ddJ	.	8ffJ	.
4AA-	p	4r	.	16r	.	16r	.
.	.	.	.	16B-'LL	p	16d'LL	p
.	.	.	.	16B-'	.	16d'	.
.	.	.	.	16B-'JJ	.	16d'JJ	.
4AA-	.	4r	.	(16dLL	.	(16fLL	.
.	.	.	.	16B-)	.	16d)	.
.	.	.	.	(16f	.	(16a-X	.
.	.	.	.	16dJJ)	.	16fJJ)	.
=47	=47	=47	=47	=47	=47	=47	=47
4GG	f	8GL	f	8B-L	f	8e-L	f
.	.	8gJ	.	8ee-J	.	8bb-J	.
4G	p	4r	.	16r	.	16r	.
.	.	.	.	16B-'LL	p	16e-'LL	p
.	.	.	.	16B-'	.	16e-'	.
.	.	.	.	16B-'JJ	.	16e-'JJ	.
4G	.	4r	.	(16e-LL	.	(16gLL	.
.	.	.	.	16B-)	.	16e-)	.
.	.	.	.	(16g	.	(16b-	.
.	.	.	.	16e-JJ)	.	16gJJ)	.
=48	=48	=48	=48	=48	=48	=48	=48
4D	f	8A-XL	f	8B-L	f	8fL	f
.	.	8b-J	.	8ffJ	.	8aa-XJ	.
4D	p	4r	.	16r	.	16r	.
.	.	.	.	16f'LL	p	16a-X'LL	p
.	.	.	.	16f'	.	16a-'	.
.	.	.	.	16f'JJ	.	16a-'JJ	.
4D	.	4r	.	(16a-XLL	.	(16ccLL	.
.	.	.	.	16g)	.	16b-)	.
.	.	.	.	(16g	.	(16b-	.
.	.	.	.	16fJJ)	.	16a-JJ)	.
=49	=49	=49	=49	=49	=49	=49	=49
4E-	f	8B-L	f	8e-L	f	8gL	f
.	.	8e-J	.	8b-J	.	8ggJ	.
(4EE-	p	(4e-	p	8r	.	8r	.
.	.	.	.	8gg	p	8bb-	p
4EEn)	.	4g)	.	8r	.	8r	.
.	.	.	.	8b-	.	8dd	.
!!LO:LB:g=z
=50	=50	=50	=50	=50	=50	=50	=50
4FF	.	4f	.	(8.ddL	.	(8.ffL	.
.	.	.	.	16b-Jk)	.	16ddJk)	.
8r	.	8r	.	4a	.	4cc	.
(8E-XL	.	(8gL	.	.	.	.	.
8D	.	8f	.	4r	.	4r	.
8CJ)	.	8e-J)	.	.	.	.	.
=51	=51	=51	=51	=51	=51	=51	=51
8BB-L	f	(16dLL	f	2.f	f	2.ff	f
.	.	16f	.	.	.	.	.
8BB-	.	16d	.	.	.	.	.
.	.	16fJJ)	.	.	.	.	.
!	!	!LO:TX:a:t=simile	!	!	!	!	!
8BB-	.	16dLL	.	.	.	.	.
.	.	16f	.	.	.	.	.
8BB-	.	16d	.	.	.	.	.
.	.	16fJJ	.	.	.	.	.
8BB-	.	16dLL	.	.	.	.	.
.	.	16f	.	.	.	.	.
8BB-J	.	16d	.	.	.	.	.
.	.	16fJJ	.	.	.	.	.
=52	=52	=52	=52	=52	=52	=52	=52
8CL	.	16e-LL	.	[4A	.	[4a	.
.	.	16f	.	.	.	.	.
8C	.	16e-	.	.	.	.	.
.	.	16fJJ	.	.	.	.	.
8FF	.	16cLL	.	(8.AL]	.	(8.aL]	.
.	.	16f	.	.	.	.	.
8FF	.	16e-	.	.	.	.	.
.	.	16fJJ	.	32B-	.	32b-	.
.	.	.	.	32cJJJ)	.	32ccJJJ)	.
8BB-	.	16dLL	.	8B-	.	8b-	.
.	.	16f	.	.	.	.	.
8BB-J	.	16B-	.	8r	.	8r	.
.	.	16fJJ	.	.	.	.	.
=53	=53	=53	=53	=53	=53	=53	=53
.	.	.	.	(32qd/LLL	.	(32qdd/LLL	.
.	.	.	.	32qc/	.	32qcc/	.
.	.	.	.	32qBn/JJJ	.	32qbn/JJJ	.
8FL	.	16ALL	.	8c)	.	8cc)	.
.	.	16f	.	.	.	.	.
8F	.	16c	.	8r	.	8r	.
.	.	16fJJ	.	.	.	.	.
.	.	.	.	(32qe-/LLL	.	(32qee-/LLL	.
.	.	.	.	32qd/	.	32qdd/	.
.	.	.	.	32qc/JJJ	.	32qcc/JJJ	.
8F	.	16B-LL	.	8d)	.	8dd)	.
.	.	16f	.	.	.	.	.
8F	.	16d	.	8r	.	8r	.
.	.	16fJJ	.	.	.	.	.
.	.	.	.	(32qf/LLL	.	(32qff/LLL	.
.	.	.	.	32qe-/	.	32qee-/	.
.	.	.	.	32qd/JJJ	.	32qdd/JJJ	.
8F	.	16cLL	.	8e-)	.	8ee-)	.
.	.	16f	.	.	.	.	.
8FJ	.	16A	.	8r	.	8r	.
.	.	16fJJ	.	.	.	.	.
!!LO:PB:g=z
=54	=54	=54	=54	=54	=54	=54	=54
.	.	(16qqc/	.	(16qqe-/	.	(16qqee-/	.
4F	.	8B-L)	.	8dL)	.	8ddL)	.
.	.	16A	.	16c	.	16cc	.
.	.	16B-JJ	.	16dJJ	.	16ddJJ	.
4FF	.	4A	.	4c	.	4cc	.
4r	.	4r	.	4r	.	4r	.
=55	=55	=55	=55	=55	=55	=55	=55
8BB-L	p	(16DLL	p	2.f	p	2.ff	p
.	.	16F	.	.	.	.	.
8BB-	.	16D	.	.	.	.	.
.	.	16FJJ)	.	.	.	.	.
!	!	!LO:TX:b:t=simile	!	!	!	!	!
8BB-	.	16DLL	.	.	.	.	.
.	.	16F	.	.	.	.	.
8BB-	.	16D	.	.	.	.	.
.	.	16FJJ	.	.	.	.	.
8BB-	.	16DLL	.	.	.	.	.
.	.	16F	.	.	.	.	.
8BB-J	.	16D	.	.	.	.	.
.	.	16FJJ	.	.	.	.	.
=56	=56	=56	=56	=56	=56	=56	=56
8CL	.	16E-LL	.	[4A	.	[4a	.
.	.	16F	.	.	.	.	.
8C	.	16E-	.	.	.	.	.
.	.	16FJJ	.	.	.	.	.
8FF	.	16CLL	.	(8.AL]	.	(8.aL]	.
.	.	16F	.	.	.	.	.
8FF	.	16E-	.	.	.	.	.
.	.	16FJJ	.	32B-	.	32b-	.
.	.	.	.	32cJJJ)	.	32ccJJJ)	.
8BB-	.	8DL	.	8B-L	.	4b-	.
8BB-J	.	[8B-J	.	(16d	.	.	.
.	.	.	.	16fJJ)	.	.	.
=57	=57	=57	=57	=57	=57	=57	=57
.	.	.	.	(16qqf/	.	(16qqa/	.
8EE-L	.	8B-L]	.	8e-L)	.	8gL)	.
8EE-	.	8G	.	16d	.	16f	.
.	.	.	.	16cJJ	.	16e-JJ	.
8FF	.	8F	.	4B-	.	4d	.
8FF	.	8F	.	.	.	.	.
8FF	.	8F	.	4At	.	4cT	.
8FFJ	.	8FJ	.	.	.	.	.
!!LO:LB:g=z
=58	=58	=58	=58	=58	=58	=58	=58
4BB-	.	4F	.	8B-L	.	8B-L	.
.	.	.	.	(32dd	f	(32bb-	f
.	.	.	.	32ee-J	.	32cccJ	.
.	.	.	.	16ffJJ)	.	16dddJJ)	.
4D	.	2f	p	16r	.	16r	.
.	.	.	.	16dd'LL	p	16ff'LL	p
.	.	.	.	16cc'	.	16ee-'	.
.	.	.	.	16b-'JJ	.	16dd'JJ	.
4F	.	.	.	16a'LL	.	16cc'LL	.
.	.	.	.	16g'	.	16b-'	.
.	.	.	.	16a'	.	16cc'	.
.	.	.	.	16f'JJ	.	16a'JJ	.
=59	=59	=59	=59	=59	=59	=59	=59
4GG	.	4r	.	8dL	.	8b-L	.
.	.	.	.	(32b-	f	(32gg	f
.	.	.	.	32ccJ	.	32aaJ	.
.	.	.	.	16ddJJ)	.	16bb-JJ)	.
4BB-	.	2d	.	16r	.	16r	.
.	.	.	.	16b-'LL	p	16dd'LL	p
.	.	.	.	16a'	.	16cc'	.
.	.	.	.	16g'JJ	.	16b-'JJ	.
4D	.	.	.	16f'LL	.	16a-X'\LL	.
.	.	.	.	16a-X'	.	16cc'	.
.	.	.	.	16g'	.	16b-'	.
.	.	.	.	16f'JJ	.	16a-'JJ	.
=60	=60	=60	=60	=60	=60	=60	=60
4EE-	.	4r	.	8e-L	.	8gL	.
.	.	.	.	(32ee-	f	(32gg	f
.	.	.	.	32ffJ	.	32aanJ	.
.	.	.	.	16ggJJ)	.	16bb-JJ)	.
4GG	.	[2B-	.	16r	.	16r	.
.	.	.	.	16g'LL	p	16b-'LL	p
.	.	.	.	16f'	.	16an'	.
.	.	.	.	16e-'JJ	.	16g'JJ	.
4BB-	.	.	.	16d'/LL	.	16f'LL	.
.	.	.	.	16dd'	.	16ff'	.
.	.	.	.	16dd'	.	16ff'	.
.	.	.	.	16dd'JJ	.	16ff'JJ	.
!!LO:LB:g=z
=61	=61	=61	=61	=61	=61	=61	=61
8E-L	.	8B-L]	.	(16ddLL	.	(16ffLL	.
.	.	.	.	16cc)	.	16ee-)	.
8E-	.	8g	.	(16ee-	.	(16gg	.
.	.	.	.	16ccJJ)	.	16ee-JJ)	.
8F	.	8f	.	4b-	.	4dd	.
8F	.	8f	.	.	.	.	.
8FF	.	8f	.	4at	.	4ccT	.
8FFJ	.	8fJ	.	.	.	.	.
=62	=62	=62	=62	=62	=62	=62	=62
4BB-	.	2f	.	8b-L	.	16b-LL	.
.	.	.	.	.	.	(16dd	.
.	.	.	.	(32b-	.	16ff	.
.	.	.	.	32cc	.	.	.
.	.	.	.	32dd	.	16ddJJ)	.
.	.	.	.	32b-JJJ)	.	.	.
4F	.	.	.	8aL	.	16ccLL	.
.	.	.	.	.	.	(16a	.
.	.	.	.	(32a	.	16cc	.
.	.	.	.	32b-	.	.	.
.	.	.	.	32a	.	16aJJ)	.
.	.	.	.	32b-JJJ)	.	.	.
4F#X	.	4a	.	8ccL	.	16ee-LL	.
.	.	.	.	.	.	(16cc	.
.	.	.	.	(32a	.	16ee-	.
.	.	.	.	32b-	.	.	.
.	.	.	.	32cc	.	16ccJJ)	.
.	.	.	.	32aJJJ)	.	.	.
=63	=63	=63	=63	=63	=63	=63	=63
4G	.	4d	.	8gL	.	16b-LL	.
.	.	.	.	.	.	(16bb-	.
.	.	.	.	(32g	.	16ddd	.
.	.	.	.	32a	.	.	.
.	.	.	.	32b-	.	16bb-JJ)	.
.	.	.	.	32gJJJ)	.	.	.
4D	.	4B-	.	8fL	.	16aa-XLL	.
.	.	.	.	.	.	(16ff	.
.	.	.	.	(32d	.	16aa-	.
.	.	.	.	32e-	.	.	.
.	.	.	.	32f	.	16ffJJ)	.
.	.	.	.	32e-JJJ)	.	.	.
4BB-	.	4d	.	8fL	.	16aa-LL	.
.	.	.	.	.	.	(16a-X	.
.	.	.	.	(32f	.	16cc	.
.	.	.	.	32g	.	.	.
.	.	.	.	32a-X	.	16a-JJ)	.
.	.	.	.	32fJJJ)	.	.	.
!!LO:LB:g=z
=64	=64	=64	=64	=64	=64	=64	=64
4E-	.	2B-	.	8e-L	.	16gLL	.
.	.	.	.	.	.	(16gg	.
.	.	.	.	(32ee-	.	16bb-	.
.	.	.	.	32ff	.	.	.
.	.	.	.	32gg	.	16ggJJ)	.
.	.	.	.	32ee-JJJ)	.	.	.
4BB-	.	.	.	8ddL	.	16ffLL	.
.	.	.	.	.	.	(16dd	.
.	.	.	.	(32b-	.	16ff	.
.	.	.	.	32an	.	.	.
.	.	.	.	32b-	.	16ddJJ)	.
.	.	.	.	32ccJJJ)	.	.	.
4B-	.	(8b-L	.	8ddL	.	16ffLL	.
.	.	.	.	.	.	(16f	.
.	.	8fJ)	.	(32d	.	16b-	.
.	.	.	.	32e-	.	.	.
.	.	.	.	32f	.	16a-XJJ)	.
.	.	.	.	32dJJJ)	.	.	.
=65	=65	=65	=65	=65	=65	=65	=65
.	.	.	.	(16qqf/	.	(16qqa-X/	.
4E-	.	(8B-L	.	8e-L)	.	8gL)	.
.	.	8GJ)	.	(16d	.	(16f	.
.	.	.	.	16cJJ)	.	16e-JJ)	.
4Fn	.	4F	.	(4B-	.	(4d	.
4FF	.	4F	.	4A)	.	4c)	.
=66	=66	=66	=66	=66	=66	=66	=66
4r	.	4r	.	4r	.	(8ee-L	pp
.	.	.	.	.	.	8ccJ)	.
4FF#X	pp	4c	pp	4e-	pp	4an	.
4FF#	.	4c	.	4e-	.	4a	.
=67	=67	=67	=67	=67	=67	=67	=67
(2FF#X	.	(2c	.	(2e-	.	(2a	.
8GG)	.	8B-)	.	8d)	.	8b-)	.
8r	.	8r	.	8r	.	8r	.
=68	=68	=68	=68	=68	=68	=68	=68
4r	.	4r	.	4B-	f	4g	f
4EE-	f	4E-	f	4ee- 4g 4B-	.	4gg 4b- 4e-	.
4r	.	4r	.	4r	.	8r	.
.	.	.	.	.	.	(24gLL	p
.	.	.	.	.	.	24e-	.
.	.	.	.	.	.	24cJJ)	.
=69	=69	=69	=69	=69	=69	=69	=69
(4FFn	p	4F	p	(8.cL	p	(8.AL	.
.	.	.	.	16e-Jk)	.	16cJk)	.
4BB-)	.	4F	.	4d	.	4B-	.
4r	.	4r	.	4r	.	4r	.
=:|!;	=:|!;	=:|!	=:|!;	=:|!	=:|!;	=:|!;	=:|!;
*-	*-	*-	*-	*-	*-	*-	*-
!!!system-decoration: [s1,s2,s3,s4]
!!!software: music21 v.9.1.0
!!!software: converter21
!!!software: parseDox2XML.xsl
!!!software: doxml2mei.xsl
!!!: Wolfgang Amadé Mozart
!!!1: Karl Heinz Füssl
!!!2: Ernst Fritz Schmid
!!!OCO: Internationale Stiftung Mozarteum Salzburg
!!!OCO1: The Packard Humanities Institute
!!!YEM: CC BY-NC-SA 4.0
!!!GCO: Digital Interactive Mozart Edition (DIME)
!!!ONB: This is the encoding of the first movement of K. 137 according to the Neue Mozart-Ausgabe IV/12/6.
!!!meiraw:meiHead: <ns0:meiHead xmlns:ns0="http://www.music-encoding.org/ns/mei">\n      <ns0:fileDesc>\n         <ns0:titleStmt xml:id="fd_titstmt">\n            <ns0:title authURI="https://dme.mozarteum.at" authority="KVonline" label="NMA digital" type="unit" xml:id="fd_tit_1" xml:lang="DE">Divertimento in B, 1. Satz, KV 137/01</ns0:title>\n            <ns0:title authURI="https://dme.mozarteum.at" authority="KVonline" label="NMA digital" type="unit" xml:id="fd_tit_2" xml:lang="EN">Divertimento in B flat, 1st mvt., K. 137/01</ns0:title>\n            <ns0:title type="file" xml:id="fd_tit_3">\n               <ns0:ref target="https://dme.mozarteum.at/movi/file/137/1" targettype="file_location">dmeref_137-001_2351.xml</ns0:ref>\n            </ns0:title>\n            <ns0:title type="subordinate" xml:id="fd_tit_4" xml:lang="EN">A digital edition</ns0:title>\n            <ns0:author>\n               <ns0:persName authURI="https://d-nb.info/gnd/118584596" authority="GND" codedval="118584596" label="MI-PID_39409" role="composer" xml:id="WAM">Wolfgang Amadé Mozart</ns0:persName>\n            </ns0:author>\n            <ns0:respStmt>\n               <ns0:resp>NMA reference text prepared by:</ns0:resp>\n               <ns0:corpName xml:id="NMA-editors">\n                  <ns0:persName authURI="https://d-nb.info/gnd/118898175" authority="GND" codedval="118898175" label="MI-PID_64394" role="editor" xml:id="KHF">Karl Heinz Füssl</ns0:persName>\n                  <ns0:persName authURI="https://d-nb.info/gnd/124095739" authority="GND" codedval="124095739" label="MI-PID_64807" role="editor" xml:id="EFS">Ernst Fritz Schmid</ns0:persName>\n               </ns0:corpName>\n            </ns0:respStmt>\n            <ns0:funder n="1" xml:id="ISM">\n               <ns0:corpName authURI="https://d-nb.info/gnd/37019-8" authority="GND" codedval="37019-8">Internationale Stiftung Mozarteum Salzburg</ns0:corpName>\n               <ns0:address>\n                  <ns0:addrLine>\n                     <ns0:settlement authURI="https://www.geonames.org/2766824" authority="GeoNames">Salzburg</ns0:settlement>\n                  </ns0:addrLine>\n                  <ns0:addrLine>\n                     <ns0:country>Austria</ns0:country>\n                  </ns0:addrLine>\n               </ns0:address>\n            </ns0:funder>\n            <ns0:funder n="2" xml:id="PHI">\n               <ns0:corpName authURI="https://d-nb.info/dnbn/330242865" authority="GND" codedval="330242865">The Packard Humanities Institute</ns0:corpName>\n               <ns0:address>\n                  <ns0:addrLine>\n                     <ns0:settlement authURI="https://www.geonames.org/5368335" authority="GeoNames">Los Altos</ns0:settlement>\n                  </ns0:addrLine>\n                  <ns0:addrLine>\n                     <ns0:country>California, USA</ns0:country>\n                  </ns0:addrLine>\n               </ns0:address>\n            </ns0:funder>\n         </ns0:titleStmt>\n         <ns0:editionStmt>\n            <ns0:edition>\n               <ns0:identifier type="version">1.0.1</ns0:identifier>\n               <ns0:date isodate="2019-02-28" type="release" />\n               <ns0:date isodate="2020-11-17" type="update" />\n            </ns0:edition>\n            <ns0:respStmt n="1">\n               <ns0:resp>Digital remastering by:</ns0:resp>\n               <ns0:persName analog="#OS" xml:id="ed.p1">Oleksii Sapov</ns0:persName>\n            </ns0:respStmt>\n            <ns0:respStmt n="2">\n               <ns0:resp>Proofreading by:</ns0:resp>\n               <ns0:persName analog="#MB" xml:id="pr.p1">Mirijam Beier</ns0:persName>\n               <ns0:persName analog="#ND" xml:id="pr.p2">Norbert Dubowy</ns0:persName>\n            </ns0:respStmt>\n         </ns0:editionStmt>\n         <ns0:pubStmt>\n            <ns0:publisher>\n               <ns0:corpName analog="#ISM" />\n            </ns0:publisher>\n            <ns0:respStmt>\n               <ns0:corpName label="ISM Research Department" role="sponsor" xml:id="ISM-Research">\n                  <ns0:persName authURI="https://d-nb.info/gnd/10403128X" authority="GND" codedval="10403128X" label="MI-PID_64597" role="pdr" xml:id="UL">Ulrich Leisinger</ns0:persName>\n               </ns0:corpName>\n            </ns0:respStmt>\n            <ns0:availability>\n               <ns0:useRestrict label="license">CC BY-NC-SA 4.0</ns0:useRestrict>\n            </ns0:availability>\n         </ns0:pubStmt>\n         <ns0:seriesStmt>\n            <ns0:title>Digital Interactive Mozart Edition (DIME)</ns0:title>\n            <ns0:respStmt>\n               <ns0:corpName label="Digital Mozart Edition Editorial Office" role="project execution" xml:id="DME-editors">\n                  <ns0:persName authURI="https://d-nb.info/gnd/1041960638" authority="GND" codedval="1041960638" label="MI-PID_65157" role="rth edt" xml:id="ND">Norbert Dubowy</ns0:persName>\n                  <ns0:persName authURI="https://d-nb.info/gnd/1161430091" authority="GND" codedval="1161430091" label="MI-PID_84342" role="edt mrk" xml:id="MB">Mirijam Beier</ns0:persName>\n                  <ns0:persName authURI="https://d-nb.info/gnd/1083841270" authority="GND" codedval="1083841270" label="MI-PID_84344" role="edt mrk" xml:id="IC">Iacopo Cividini</ns0:persName>\n                  <ns0:persName authURI="https://d-nb.info/gnd/135494575" authority="GND" codedval="135494575" label="MI-PID_84343" role="edt mrk" xml:id="TR">Till Reininghaus</ns0:persName>\n                  <ns0:persName authURI="https://d-nb.info/gnd/1161423672" authority="GND" codedval="1161423672" label="MI-PID_84341" role="edt mrk" xml:id="OS">Oleksii Sapov</ns0:persName>\n                  <ns0:persName authURI="https://d-nb.info/gnd/1061093409" authority="GND" codedval="1061093409" label="MI-PID_27802" role="led dtm" xml:id="FK">Franz Kelnreiter</ns0:persName>\n                  <ns0:persName label="MI-PID_83688" role="dtm" xml:id="FG">Felix Gründer</ns0:persName>\n               </ns0:corpName>\n            </ns0:respStmt>\n         </ns0:seriesStmt>\n         <ns0:notesStmt>\n            <ns0:annot>This is the encoding of the first movement of K. 137 according to the Neue Mozart-Ausgabe IV/12/6.</ns0:annot>\n         </ns0:notesStmt>\n         <ns0:sourceDesc>\n            <ns0:source label="NMA1" xml:id="source_1">\n               <ns0:identifier authURI="https://www.baerenreiter.com" authority="Bärenreiter" type="catalog_number">BA 4544-01</ns0:identifier>\n               <ns0:titleStmt>\n                  <ns0:title type="volume">Neue Ausgabe sämtlicher Werke, Kassationen, Serenaden und Divertimenti für Orchester, Band 6</ns0:title>\n                  <ns0:title type="work">Divertimento in B</ns0:title>\n                  <ns0:title type="unit">Andante</ns0:title>\n                  <ns0:composer analog="#WAM">Wolfgang Amadeus Mozart</ns0:composer>\n                  <ns0:editor analog="#NMA-editors">\n                     <ns0:persName analog="#KHF">Karl Heinz Füssl</ns0:persName>\n                     <ns0:persName analog="#EFS">Ernst Fritz Schmid</ns0:persName>\n                  </ns0:editor>\n               </ns0:titleStmt>\n               <ns0:editionStmt>\n                  <ns0:edition xml:lang="DE">[Erste Auflage]</ns0:edition>\n                  <ns0:edition xml:lang="EN">[First edition]</ns0:edition>\n                  <ns0:edition xml:id="digital_image">\n                     <ns0:ref target="https://dme.mozarteum.at/DME/nma/nma_cont.php?vsep=125&amp;p1=19&amp;l=1" targettype="website">\n                        <ns0:repository>NMA Online</ns0:repository>\n                     </ns0:ref>\n                  </ns0:edition>\n               </ns0:editionStmt>\n               <ns0:pubStmt>\n                  <ns0:publisher>\n                     <ns0:corpName authURI="https://d-nb.info/gnd/2005573-0" authority="GND" codedval="2005573-0" xml:id="BV">Bärenreiter</ns0:corpName>\n                  </ns0:publisher>\n                  <ns0:pubPlace>Kassel</ns0:pubPlace>\n                  <ns0:date>1964</ns0:date>\n               </ns0:pubStmt>\n               <ns0:seriesStmt>\n                  <ns0:title label="NMA">Wolfgang Amadeus Mozart, Neue Ausgabe sämtlicher Werke</ns0:title>\n                  <ns0:biblScope label="Orchesterwerke" unit="Serie" xml:lang="DE">\n                     <ns0:num>IV</ns0:num>\n                  </ns0:biblScope>\n                  <ns0:biblScope label="Kassationen, Serenaden und Divertimenti für Orchester" unit="Werkgruppe" xml:lang="DE">\n                     <ns0:num>12</ns0:num>\n                  </ns0:biblScope>\n                  <ns0:biblScope unit="Band" xml:lang="DE">\n                     <ns0:num>6</ns0:num>\n                  </ns0:biblScope>\n                  <ns0:biblScope label="Orchesterwerke" unit="Series" xml:lang="EN">\n                     <ns0:num>IV</ns0:num>\n                  </ns0:biblScope>\n                  <ns0:biblScope label="Kassationen, Serenaden und Divertimenti für Orchester" unit="Group" xml:lang="EN">\n                     <ns0:num>12</ns0:num>\n                  </ns0:biblScope>\n                  <ns0:biblScope unit="Volume" xml:lang="EN">\n                     <ns0:num>6</ns0:num>\n                  </ns0:biblScope>\n                  <ns0:biblScope unit="page">19-29</ns0:biblScope>\n               </ns0:seriesStmt>\n               <ns0:contents>\n                  <ns0:contentItem>Andante <ns0:bibl>\n                        <ns0:biblScope unit="page">19-22</ns0:biblScope>\n                     </ns0:bibl>\n                  </ns0:contentItem>\n               </ns0:contents>\n               <ns0:notesStmt>\n                  <ns0:annot n="1">Mozart, Wolfgang Amadeus. Neue Ausgabe sämtlicher Werke, Serie IV, Werkgruppe 12, Kassationen, Serenaden und Divertimenti für Orchester Band 6. Ed. Karl Heinz Füssl, Ernst Fritz Schmid. Kassel: Bärenreiter, 1964, p. 19-29.</ns0:annot>\n                  <ns0:annot n="2">Andante, p. 19-22.</ns0:annot>\n               </ns0:notesStmt>\n            </ns0:source>\n            <ns0:source label="NMA2" xml:id="source_2">\n               <ns0:identifier authURI="https://www.baerenreiter.com" authority="Bärenreiter" type="catalog_number">BA 4544-01</ns0:identifier>\n               <ns0:titleStmt>\n                  <ns0:title type="volume">Neue Ausgabe sämtlicher Werke, Kassationen, Serenaden und Divertimenti für Orchester, Band 6</ns0:title>\n                  <ns0:title type="work">Divertimento in B</ns0:title>\n                  <ns0:title type="unit">Andante</ns0:title>\n                  <ns0:composer analog="#WAM">Wolfgang Amadeus Mozart</ns0:composer>\n                  <ns0:editor analog="#NMA-editors">\n                     <ns0:persName analog="#KHF">Karl Heinz Füssl</ns0:persName>\n                     <ns0:persName analog="#EFS">Ernst Fritz Schmid</ns0:persName>\n                  </ns0:editor>\n               </ns0:titleStmt>\n               <ns0:editionStmt>\n                  <ns0:edition xml:lang="DE">Zweite, durchgesehene Auflage 2003 unter Berücksichtigung der im Kritischen Bericht auf Seite f/22 zusammengestellten Berichtigungen und Ergänzungen zum Notenband</ns0:edition>\n                  <ns0:edition xml:lang="EN">[Second, revised edition of 2003, in due consideration of the addenda and corrigenda documented in the Critical Report on page f/22]</ns0:edition>\n               </ns0:editionStmt>\n               <ns0:pubStmt>\n                  <ns0:publisher>\n                     <ns0:corpName analog="#BV">Bärenreiter</ns0:corpName>\n                  </ns0:publisher>\n                  <ns0:pubPlace>Kassel</ns0:pubPlace>\n                  <ns0:date>2003</ns0:date>\n               </ns0:pubStmt>\n               <ns0:seriesStmt>\n                  <ns0:title>Wolfgang Amadeus Mozart, Neue Ausgabe sämtlicher Werke</ns0:title>\n                  <ns0:biblScope label="Orchesterwerke" unit="Serie" xml:lang="DE">\n                     <ns0:num>IV</ns0:num>\n                  </ns0:biblScope>\n                  <ns0:biblScope label="Kassationen, Serenaden und Divertimenti für Orchester" unit="Werkgruppe" xml:lang="DE">\n                     <ns0:num>12</ns0:num>\n                  </ns0:biblScope>\n                  <ns0:biblScope unit="Band" xml:lang="DE">\n                     <ns0:num>6</ns0:num>\n                  </ns0:biblScope>\n                  <ns0:biblScope label="Orchesterwerke" unit="Series" xml:lang="EN">\n                     <ns0:num>IV</ns0:num>\n                  </ns0:biblScope>\n                  <ns0:biblScope label="Kassationen, Serenaden und Divertimenti für Orchester" unit="Group" xml:lang="EN">\n                     <ns0:num>12</ns0:num>\n                  </ns0:biblScope>\n                  <ns0:biblScope unit="Volume" xml:lang="EN">\n                     <ns0:num>6</ns0:num>\n                  </ns0:biblScope>\n                  <ns0:biblScope unit="page">19-29</ns0:biblScope>\n               </ns0:seriesStmt>\n               <ns0:contents>\n                  <ns0:contentItem>Andante<ns0:bibl>\n                        <ns0:biblScope unit="page">19-22</ns0:biblScope>\n                     </ns0:bibl>\n                  </ns0:contentItem>\n               </ns0:contents>\n               <ns0:notesStmt>\n                  <ns0:annot n="1">Mozart, Wolfgang Amadeus. Neue Ausgabe sämtlicher Werke, Serie IV, Werkgruppe 12, Kassationen, Serenaden und Divertimenti für Orchester Band 6. Ed. Karl Heinz Füssl, Ernst Fritz Schmid. Zweite, durchgesehene Auflage 2003 unter Berücksichtigung der im Kritischen Bericht auf Seite f/22 zusammengestellten Berichtigungen und Ergänzungen zum Notenband. Kassel: Bärenreiter, 2003, p. 19-29.</ns0:annot>\n                  <ns0:annot n="2">Andante, p. 19-22.</ns0:annot>\n               </ns0:notesStmt>\n            </ns0:source>\n            <ns0:source label="NMA-KB" xml:id="source_3">\n               <ns0:identifier authURI="https://www.baerenreiter.com" authority="Bärenreiter" type="catalog_number">BA 4544-40</ns0:identifier>\n               <ns0:titleStmt>\n                  <ns0:title>Wolfgang Amadeus Mozart, Neue Ausgabe sämtlicher Werke, Kritische Berichte, Serie IV: Orchesterwerke, Werkgruppe 12: Kassationen, Serenaden und Divertimenti für Orchester, Band 6.</ns0:title>\n                  <ns0:author analog="#KHF">Karl Heinz Füssl</ns0:author>\n                  <ns0:author analog="#EFS">Ernst Fritz Schmid</ns0:author>\n               </ns0:titleStmt>\n               <ns0:editionStmt>\n                  <ns0:edition xml:lang="DE">[Auf Seite f/22 zusammengestellte Berichtigungen und Ergänzungen zum Notenband]</ns0:edition>\n                  <ns0:edition xml:lang="EN">[Addenda and corrigenda to the music edition reported on p. f/22]</ns0:edition>\n               </ns0:editionStmt>\n               <ns0:pubStmt>\n                  <ns0:publisher analog="#BV">Bärenreiter</ns0:publisher>\n                  <ns0:pubPlace>Kassel</ns0:pubPlace>\n                  <ns0:date>1970</ns0:date>\n               </ns0:pubStmt>\n               <ns0:seriesStmt>\n                  <ns0:title>Mozart, Kritische Berichte.</ns0:title>\n                  <ns0:biblScope label="Orchesterwerke" unit="Serie" xml:lang="DE">\n                     <ns0:num>IV</ns0:num>\n                  </ns0:biblScope>\n                  <ns0:biblScope label="Kassationen, Serenaden und Divertimenti für Orchester" unit="Werkgruppe" xml:lang="DE">\n                     <ns0:num>12</ns0:num>\n                  </ns0:biblScope>\n                  <ns0:biblScope unit="Band" xml:lang="DE">\n                     <ns0:num>6</ns0:num>\n                  </ns0:biblScope>\n                  <ns0:biblScope label="Orchesterwerke" unit="Series" xml:lang="EN">\n                     <ns0:num>IV</ns0:num>\n                  </ns0:biblScope>\n                  <ns0:biblScope label="Kassationen, Serenaden und Divertimenti für Orchester" unit="Group" xml:lang="EN">\n                     <ns0:num>12</ns0:num>\n                  </ns0:biblScope>\n                  <ns0:biblScope unit="Volume" xml:lang="EN">\n                     <ns0:num>6</ns0:num>\n                  </ns0:biblScope>\n               </ns0:seriesStmt>\n               <ns0:notesStmt>\n                  <ns0:annot n="1">Karl Heinz Füssl und Ernst Fritz Schmid. Wolfgang Amadeus Mozart, Neue Ausgabe sämtlicher Werke, Kritische Berichte, Serie IV, Werkgruppe 12, Band 6. Kassel: Bärenreiter, 1970.</ns0:annot>\n               </ns0:notesStmt>\n            </ns0:source>\n         </ns0:sourceDesc>\n      </ns0:fileDesc>\n      <ns0:encodingDesc>\n         <ns0:appInfo>\n            <ns0:application version="0.2.0" xml:id="parseDox2XML.xsl_v0.2.0">\n               <ns0:name>parseDox2XML.xsl</ns0:name>\n            </ns0:application>\n            <ns0:application version="0.9.1" xml:id="doxml2mei.xsl_v0.9.1">\n               <ns0:name>doxml2mei.xsl</ns0:name>\n               <ns0:p> This converter is a reasonably large collection of XSLT stylesheets (utilizing XSLT 3.0), developed by <ns0:persName authURI="https://d-nb.info/gnd/174032757" authority="GND" codedval="174032757" xml:id="JoKep">Johannes Kepper</ns0:persName> (<ns0:ref target="https://edirom.de">\n                     <ns0:corpName authURI="https://d-nb.info/gnd/1095564986" authority="GND" codedval="1095564986">ViFE</ns0:corpName>\n                  </ns0:ref>) on behalf of and assisted by the <ns0:ref target="https://mozarteum.at">Salzburg Mozarteum Foundation</ns0:ref> staff.</ns0:p>\n            </ns0:application>\n         </ns0:appInfo>\n         <ns0:editorialDecl label="Editor’s Note">\n            <ns0:p>This is the encoding of the first movement of K. 137 according to the <ns0:rend rend="italic">Neue Mozart-Ausgabe</ns0:rend> IV/12/6 (ed. Karl Heinz Füssl and Ernst Fritz Schmid, 1964; second edition, 2003). The first and second edition, respectively, of NMA IV/12/6 are encoded as 'source_1' and 'source_2', with the second edition as the accepted reading. Addenda and corrigenda reported in the corresponding Critical Report (Karl Heinz Füssl and Ernst Fritz Schmid, 1970) on page f/22 and marked as 'source_3' have already been worked into the second edition. The NMA edition is based on the autograph score (NMA siglum A), which is privately owned.</ns0:p>\n            <ns0:p>In the digital edition, the diacritic markup of editorial interventions used in the NMA print edition (i.e. small size, italics, brackets, dashed line form) are coded as additions; as such they are marked as decisions by the editors of the NMA (@resp). Wherever possible the markup of additions affects the smallest unit that can be individually addressed, usually an element. In some cases distinction between supplied and un-supplied elements is made through a choice element. With the exception of possible corrections of obvious printing errors (marked in the code as such) the coding of the musical text is faithful to the aforementioned NMA editions. Some normalizations have been applied; for a full description of the editorial principles see the <ns0:ref target="https://dme.mozarteum.at/musik/edition/#200" targettype="website">Editorial Guidelines of the DME Music Editions</ns0:ref>.</ns0:p>\n            <ns0:p>The present encoding in MEI 3.0.0 (with some minor customizations) is based on a previous encoding in DOX format. The DOX data were gained from optical music recognition (OMR) and proof reading processes developed and carried out by <ns0:corpName analog="#PHI">The Packard Humanities Institute</ns0:corpName> , Los Altos, CA.</ns0:p>\n            <ns0:p>For technical reasons, it is possible that some of the original editorial markup not captured by OMR (e.g. small staccato signs) is not represented in the encoded versions. </ns0:p>\n            <ns0:p>Lacunae may be reported to the <ns0:ref target="dme@mozarteum.at" targettype="email">Editorial Office of the DME</ns0:ref>. </ns0:p>\n            <ns0:p>\n               <ns0:biblList>\n                  <ns0:head>\n                     <ns0:rend fontweight="bold">Bibliography</ns0:rend>\n                  </ns0:head>\n                  <ns0:bibl>Füssl, Karl Heinz and Ernst Fritz Schmid. <ns0:rend fontstyle="italic">Wolfgang Amadeus Mozart, Neue Ausgabe sämtlicher Werke, Kritische Berichte, Serie IV, Werkgruppe 12, Band 6</ns0:rend>. Kassel: Bärenreiter, 1970.</ns0:bibl>\n                  <ns0:bibl>Mozart, Wolfgang Amadeus. <ns0:rend fontstyle="italic">Neue Ausgabe sämtlicher Werke, Serie IV, Werkgruppe 12, Kassationen, Serenaden und Divertimenti für Orchester Band 6</ns0:rend>. Ed. Karl Heinz Füssl and Ernst Fritz Schmid. Kassel: Bärenreiter, 1964.</ns0:bibl>\n                  <ns0:bibl>Mozart, Wolfgang Amadeus. <ns0:rend fontstyle="italic">Neue Ausgabe sämtlicher Werke, Serie IV, Werkgruppe 12, Kassationen, Serenaden und Divertimenti für Orchester Band 6</ns0:rend>. Ed. Karl Heinz Füssl and Ernst Fritz Schmid. Zweite, durchgesehene Auflage. Kassel: Bärenreiter, 2003.</ns0:bibl>\n               </ns0:biblList>\n            </ns0:p>\n            <ns0:p>Last revision: <ns0:date isodate="2019-02-28" />\n            </ns0:p>\n         </ns0:editorialDecl>\n         <ns0:projectDesc>\n            <ns0:p>The DOX data results from an optical music recognition (OMR) software and proof reading processes developed and realised by <ns0:corpName analog="#PHI">The Packard Humanities Institute, Los Altos, CA</ns0:corpName>.</ns0:p>\n         </ns0:projectDesc>\n      </ns0:encodingDesc>\n      <ns0:workDesc>\n         <ns0:work xml:id="ISMIDW2351">\n            <ns0:identifier authority="ISM-IDW" type="work" xml:id="idw-2350">2350</ns0:identifier>\n            <ns0:identifier authority="ISM-IDW" type="movement" xml:id="idm-2351">2351</ns0:identifier>\n            <ns0:identifier authority="KVonline" label="KVonline" type="work" xml:id="kv137">137</ns0:identifier>\n            <ns0:identifier authority="KVonline" label="KVonline" type="movement" xml:id="kv137001">137/01</ns0:identifier>\n            <ns0:identifier authURI="https://d-nb.info/gnd/300107560" authority="GND" type="work" xml:id="gnd-work">300107560</ns0:identifier>\n            <ns0:titleStmt>\n               <ns0:title type="main" xml:lang="DE">\n                  <ns0:title>Divertimento in B</ns0:title>\n                  <ns0:identifier analog="#KVonline" label="KV">KV 137</ns0:identifier>\n               </ns0:title>\n               <ns0:title n="1" type="subordinate" xml:lang="DE">1. Satz</ns0:title>\n               <ns0:title type="main" xml:lang="EN">\n                  <ns0:title>Divertimento in B flat</ns0:title>\n                  <ns0:identifier analog="#KVonline" label="KV">K. 137</ns0:identifier>\n               </ns0:title>\n               <ns0:title n="1" type="subordinate" xml:lang="EN">1st mvt.</ns0:title>\n               <ns0:title analog="#tempo" type="movementHeading" xml:id="mvt_heading" />\n               <ns0:composer analog="#WAM">Wolfgang Amadé Mozart</ns0:composer>\n            </ns0:titleStmt>\n            <ns0:tempo xml:id="tempo">Andante</ns0:tempo>\n            <ns0:key accid="f" mode="major" pname="b" />\n            <ns0:meter count="3" unit="4" />\n            <ns0:perfMedium>\n               <ns0:perfResList analog="marc:048" authURI="https://www.loc.gov/standards/valuelist/marcmusperf.html" authority="marcmusperf">\n                  <ns0:perfRes codedval="sa" n="1" xml:id="instrVoice_1" xml:lang="EN">violin1</ns0:perfRes>\n                  <ns0:perfRes codedval="sa" n="2" xml:id="instrVoice_2" xml:lang="EN">violin2</ns0:perfRes>\n                  <ns0:perfRes codedval="sb" n="3" xml:id="instrVoice_3" xml:lang="EN">viola</ns0:perfRes>\n                  <ns0:perfRes codedval="sc" n="4" xml:id="instrVoice_4" xml:lang="EN">violoncello</ns0:perfRes>\n                  <ns0:perfRes codedval="sd" n="5" xml:id="instrVoice_5" xml:lang="EN">double bass</ns0:perfRes>\n               </ns0:perfResList>\n            </ns0:perfMedium>\n            <ns0:classification>\n               <ns0:termList>\n                  <ns0:term classcode="#classification_GND">\n                     <ns0:identifier>4287289-3</ns0:identifier>\n                     <ns0:title>Divertimento</ns0:title>\n                  </ns0:term>\n               </ns0:termList>\n               <ns0:classCode authURI="https://d-nb.info/gnd/4287289-3" authority="GND" xml:id="classification_GND" />\n            </ns0:classification>\n            <ns0:expressionList label="NMA_sources">\n               <ns0:expression label="autograph score" n="1">\n                  <ns0:biblList>\n                     <ns0:bibl n="1" xml:id="NMAsource_A">\n                        <ns0:identifier authority="ISM-IDQ">28076</ns0:identifier>\n                        <ns0:title />\n                        <ns0:composer analog="#WAM">Wolfgang Amadé Mozart</ns0:composer>\n                        <ns0:physLoc>\n                           <ns0:repository>\n                              <ns0:geogName>Germany</ns0:geogName>\n                              <ns0:corpName>Ostermann von Roth Erben</ns0:corpName>\n                              <ns0:identifier type="shelfmark">unknown</ns0:identifier>\n                           </ns0:repository>\n                        </ns0:physLoc>\n                        <ns0:biblScope label="range" unit="folio">5-9</ns0:biblScope>\n                     </ns0:bibl>\n                  </ns0:biblList>\n               </ns0:expression>\n            </ns0:expressionList>\n            <ns0:componentGrp label="related units">\n               <ns0:work label="complete divertimento" n="1" xml:id="ISMIDW2350">\n                  <ns0:identifier authority="ISM-IDW" type="work">2350</ns0:identifier>\n                  <ns0:contents>\n                     <ns0:contentItem n="1">\n                        <ns0:identifier authority="ISM-IDW" type="movement">2351</ns0:identifier>\n                        <ns0:ref target="dmeref_137-001_2351.xml" targettype="file" />\n                     </ns0:contentItem>\n                     <ns0:contentItem n="2">\n                        <ns0:identifier authority="ISM-IDW" type="movement">2352</ns0:identifier>\n                        <ns0:ref target="dmeref_137-002_2352.xml" targettype="file" />\n                     </ns0:contentItem>\n                     <ns0:contentItem n="3">\n                        <ns0:identifier authority="ISM-IDW" type="movement">2353</ns0:identifier>\n                        <ns0:ref target="dmeref_137-003_2353.xml" targettype="file" />\n                     </ns0:contentItem>\n                  </ns0:contents>\n                  <ns0:relationList>\n                     <ns0:relation rel="hasPart" target="#ISMIDW2351" />\n                  </ns0:relationList>\n               </ns0:work>\n               <ns0:work analog="#ISMIDW2351" label="individual movement" n="2">\n                  <ns0:identifier authority="ISM-IDW" type="movement">2351</ns0:identifier>\n                  <ns0:relationList>\n                     <ns0:relation rel="isPartOf" target="#ISMIDW2350" />\n                  </ns0:relationList>\n               </ns0:work>\n            </ns0:componentGrp>\n         </ns0:work>\n      </ns0:workDesc>\n      <ns0:revisionDesc>\n         <ns0:change isodate="2019-01-07" n="1" resp="#FK">\n            <ns0:changeDesc>\n               <ns0:p>File converted from Dox to DoxML using <ns0:ptr target="#parseDox2XML.xsl_v0.2.0" />.</ns0:p>\n            </ns0:changeDesc>\n         </ns0:change>\n         <ns0:change isodate="2019-01-07" n="2" resp="#JoKep">\n            <ns0:changeDesc>\n               <ns0:p>File converted from DoxML to MEI using <ns0:ptr target="#docxml2mei.xsl_v0.9.1" />.</ns0:p>\n            </ns0:changeDesc>\n         </ns0:change>\n         <ns0:change isodate="2019-02-14" n="3" resp="#OS">\n            <ns0:changeDesc>\n               <ns0:p>revised and updated according to workflow_1.1</ns0:p>\n            </ns0:changeDesc>\n         </ns0:change>\n         <ns0:change isodate="2019-02-28" n="4" resp="#MB">\n            <ns0:changeDesc>\n               <ns0:p>proofreading according to workflow_1.2</ns0:p>\n            </ns0:changeDesc>\n         </ns0:change>\n         <ns0:change isodate="2019-02-28" n="5" resp="#ND">\n            <ns0:changeDesc>\n               <ns0:p>final inspection</ns0:p>\n            </ns0:changeDesc>\n         </ns0:change>\n         <ns0:change isodate="2019-02-28" n="6" resp="#DME-editors">\n            <ns0:changeDesc>\n               <ns0:p>first release; version 1.0.0</ns0:p>\n            </ns0:changeDesc>\n         </ns0:change>\n         <ns0:change isodate="2020-11-17" n="7" resp="#ND">\n            <ns0:changeDesc>\n               <ns0:p>review header, update version 1.0.1</ns0:p>\n            </ns0:changeDesc>\n         </ns0:change>\n      </ns0:revisionDesc>\n   </ns0:meiHead>
!!!RDF**kern: > = above
!!!RDF**kern: < = below
